X:77
T:I'll Have Her In Spite Of Her Minnie
Z:Jack Campin, http://www.campin.me.uk/
S:Northumbrian Minstrelsy
M:6/8
L:1/8
K:G
GAB GAG|BAG       BgB      |GAB       GAG      |cAF AfA |
GAB cAB|BAB       BGG      |cA/B/c/A/ dB/c/d/B/|cAF AfA:|
g2d f2d|dcB       BgB      |g2d       f2d      |cAF AfA | 
g2d f2d|GB/c/d/B/ dB/c/d/B/|cA/B/c/A/ dB/c/d/B/|cAF AfA:|

